img/svg_icons/mail.svg

<svg width="18" height="14" viewBox="0 0 18 14" fill="none" xmlns="http://www.w3.org/2000/svg">
<path d="M9.02259 8.20038H9.02644C9.16218 8.20038 9.29632 8.161 9.40485 8.08929L9.43429 8.07038C9.44071 8.0662 9.44741 8.06241 9.45415 8.05791L9.79703 7.77423L17.9811 1.02058C17.9642 0.997201 17.9353 0.981201 17.9046 0.981201H0.0950882C0.073 0.981201 0.0525 0.989201 0.0361765 1.00264L8.59868 8.06011C8.70659 8.14947 8.86056 8.20038 9.02259 8.20038ZM0 1.93817V11.9491L6.13382 6.99403L0 1.93817ZM11.8726 7.02764L18 11.9516V1.97147L11.8726 7.02764ZM9.92444 8.63482C9.68018 8.83523 9.36068 8.9457 9.02515 8.9457C8.68835 8.9457 8.36915 8.83588 8.12553 8.63641L6.72068 7.47776L0 12.906V12.9233C0 12.9748 0.0441765 13.0187 0.0963529 13.0187H17.9049C17.9561 13.0187 18 12.9748 18 12.923V12.907L11.2851 7.51173L9.92444 8.63482Z" fill="black"/>
</svg>

<svg width="18" height="14" fill="none" xmlns="http://www.w3.org/2000/svg"><path d="M9.023 8.2h.003a.7.7 0 00.379-.11l.03-.02.02-.012.342-.284 8.184-6.753a.096.096 0 00-.076-.04H.095a.092.092 0 00-.059.022L8.6 8.06a.67.67 0 00.424.14zM0 1.938V11.95l6.134-4.955L0 1.938zm11.873 5.09L18 11.952v-9.98l-6.127 5.056zM9.924 8.635c-.244.2-.563.31-.899.31-.337 0-.656-.11-.9-.309L6.722 7.478 0 12.906v.017c0 .052.044.096.096.096h17.809a.097.097 0 00.095-.096v-.016l-6.715-5.395-1.36 1.123z" fill="#000"/></svg>
